X:1464
L:1/4
M:6/4
K:Gmin
"^(1)" D | G A B3 A | (G F) (G F) D c | B"^(2)" (A/G/) c2 (B A) | B G A3 (B/c/) | 
"^(3)" d B c2 B c | (d/c/) (B/A/) (G F) D2 |"^(4)" G F B,2 C D | G (G/F/) G3 || D | 
 G A B2"^(1)" c B/A/ | G F D3 c || D |"^(1)" D G/A/ B3 A | c | B A/"^(2)"G/ d2 c2 | B G A2 || 
 B/c/ |"^(3)" d B c2 B A | B A D3 G || c | d c"^(3)" B2 A G | A G D3 G || G B,"^(4)" C2 D D | 
 G G/F/ G3 || G"^(4)" F G G2 B, | C D G3 ||

